!!! OTL: Berkowitz72
!!! Chapter: 1
!!! Section: I
!!! Page: 19
!!! Mode: 
!!! Encoder: DJB
**kern
*staff1
*I"Piano
=1-
*clefF4
*k[f#]
*E:
*M2/4
4e\
8d\L
8c\J
=2
16B\LL
16A\
16G\
16A\JJ
4B\
=3
16A\LL
16G\
16F#\
16G\JJ
8A\L
16G\L
16F#\JJ
=4
8G\L
16F#\L
16E\JJ
4F#\
=5
8r
8e\
8e\L
8d\J
=6
8.c\L
16B\Jk
8A\L
16G\L
16A\JJ
=7
8B\L
8BB\J
8BB/L
16C#/L
16D#/JJ
=8
4E\
4r
==
*-
